X:371
T: DIE TRAUBEN DIE WIR SCHNEIDEN
N: E1557
O: Europa, Mitteleuropa, Deutschland, Rheinland, Bonn, Kessenich
R: Staende -, Bauern - Lied, Winzerin
M: 3/4
L: 1/16
K: A
E2 | A4A4B2A2 | d4d2
B2c2d2 | e4d2B2c2d2 | e4d4z2
d2 | c4e4e2e2 | f4d2
a2g2f2 | e2d2c4A4
B3cd2c2d2c2 | B4A4z2

